dist/images/svg/sprite/icon-ok.svg

<svg width="25" height="24" viewBox="0 0 25 24" fill="none" xmlns="http://www.w3.org/2000/svg">
<g clip-path="url(#clip0_22_1460)">
<path opacity="0.6" d="M3.87726 0C2.00646 0 0.5 1.50646 0.5 3.37726V20.6228C0.5 22.4936 2.00646 24 3.87726 24H21.1228C22.9936 24 24.5 22.4936 24.5 20.6228V3.37726C24.5 1.50646 22.9936 0 21.1228 0H3.87726ZM13.0378 2.45251C15.7614 2.45251 17.9758 4.66781 17.9758 7.39126C17.9758 10.1145 15.7614 12.3285 13.0378 12.3285C10.3141 12.3285 8.09826 10.1145 8.09826 7.39126C8.09826 4.66781 10.3141 2.45251 13.0378 2.45251ZM12.9853 5.34602C11.882 5.3741 10.9925 6.28164 10.9925 7.39128C10.9925 8.51806 11.9103 9.43502 13.0378 9.43502C14.165 9.43502 15.0815 8.51806 15.0815 7.39128C15.0815 6.26405 14.165 5.34602 13.0378 5.34602C13.0202 5.34602 13.0028 5.34557 12.9853 5.34602ZM8.94874 12.4965C9.21034 12.4974 9.47427 12.5694 9.71226 12.7193C11.7337 13.9904 14.3396 13.9912 16.3618 12.7193C17.0388 12.2929 17.9312 12.4976 18.3575 13.1745C18.7834 13.8504 18.5788 14.7439 17.9023 15.1695C17.0202 15.7239 16.0508 16.1253 15.035 16.3568L17.7965 19.1183C18.3618 19.6824 18.3618 20.5993 17.7965 21.1643C17.2309 21.7295 16.3159 21.7295 15.7513 21.1643L13.0363 18.4508L10.3243 21.1643C10.0418 21.4468 9.67129 21.588 9.30126 21.588C8.93084 21.588 8.56153 21.4464 8.27826 21.1643C7.71303 20.599 7.7132 19.6836 8.27826 19.1183L11.0383 16.3568C10.0332 16.1276 9.06339 15.7299 8.17026 15.1695C7.49504 14.7439 7.292 13.8513 7.718 13.1745C7.98349 12.7515 8.432 12.5125 8.89626 12.4973C8.91375 12.4967 8.93126 12.4965 8.94877 12.4965H8.94874Z" fill="white"/>
</g>
<defs>
<clipPath id="clip0_22_1460">
<rect width="24" height="24" fill="white" transform="translate(0.5)"/>
</clipPath>
</defs>
</svg>

<svg width="25" height="24" fill="none" xmlns="http://www.w3.org/2000/svg"><g clip-path="url(#a)"><path opacity=".6" d="M3.877 0A3.37 3.37 0 0 0 .5 3.377v17.246A3.37 3.37 0 0 0 3.877 24h17.246a3.37 3.37 0 0 0 3.377-3.377V3.377A3.37 3.37 0 0 0 21.123 0H3.877Zm9.16 2.453a4.943 4.943 0 0 1 4.939 4.938 4.942 4.942 0 0 1-4.938 4.938 4.943 4.943 0 0 1-4.94-4.938 4.945 4.945 0 0 1 4.94-4.938Zm-.052 2.893a2.049 2.049 0 0 0-1.992 2.045c0 1.127.917 2.044 2.045 2.044a2.046 2.046 0 0 0 2.043-2.044 2.047 2.047 0 0 0-2.043-2.045h-.053Zm-4.036 7.15c.261.001.525.073.763.223a6.273 6.273 0 0 0 6.65 0 1.447 1.447 0 1 1 1.54 2.45 9.251 9.251 0 0 1-2.867 1.188l2.762 2.761a1.446 1.446 0 1 1-2.046 2.046l-2.715-2.713-2.712 2.713a1.445 1.445 0 0 1-2.046 0 1.446 1.446 0 0 1 0-2.046l2.76-2.761a9.272 9.272 0 0 1-2.868-1.188 1.447 1.447 0 0 1-.452-1.995 1.445 1.445 0 0 1 1.23-.678Z" fill="#fff"/></g><defs><clipPath id="a"><path fill="#fff" transform="translate(.5)" d="M0 0h24v24H0z"/></clipPath></defs></svg>
